flaticon/office/analytics.svg

<svg xmlns="http://www.w3.org/2000/svg" width="32" height="32" viewBox="0 0 24 24">
    <path d="M4 7.398438C3.761719 7.398438 3.601562 7.558594 3.601562 7.800781L3.601562 14.199219C3.601562 14.441406 3.761719 14.601562 4 14.601562 4.238281 14.601562 4.398438 14.441406 4.398438 14.199219L4.398438 7.800781C4.398438 7.558594 4.238281 7.398438 4 7.398438zM7.199219 8.199219L5.601562 8.199219C5.359375 8.199219 5.199219 8.359375 5.199219 8.601562 5.199219 8.839844 5.359375 9 5.601562 9L7.199219 9C7.441406 9 7.601562 8.839844 7.601562 8.601562 7.601562 8.359375 7.441406 8.199219 7.199219 8.199219zM5.601562 10.601562L6.398438 10.601562C6.640625 10.601562 6.800781 10.441406 6.800781 10.199219 6.800781 9.960938 6.640625 9.800781 6.398438 9.800781L5.601562 9.800781C5.359375 9.800781 5.199219 9.960938 5.199219 10.199219 5.199219 10.441406 5.359375 10.601562 5.601562 10.601562zM7.199219 11.398438L5.601562 11.398438C5.359375 11.398438 5.199219 11.558594 5.199219 11.800781 5.199219 12.039062 5.359375 12.199219 5.601562 12.199219L7.199219 12.199219C7.441406 12.199219 7.601562 12.039062 7.601562 11.800781 7.601562 11.558594 7.441406 11.398438 7.199219 11.398438zM6.398438 13L5.601562 13C5.359375 13 5.199219 13.160156 5.199219 13.398438 5.199219 13.640625 5.359375 13.800781 5.601562 13.800781L6.398438 13.800781C6.640625 13.800781 6.800781 13.640625 6.800781 13.398438 6.800781 13.160156 6.640625 13 6.398438 13zM6.398438 13"/>
    <path d="M 23.601562 17.398438 L 22.398438 17.398438 L 22.398438 5 C 22.398438 4.320312 21.878906 3.800781 21.199219 3.800781 L 2.800781 3.800781 C 2.121094 3.800781 1.601562 4.320312 1.601562 5 L 1.601562 17.398438 L 0.398438 17.398438 C 0.160156 17.398438 0 17.558594 0 17.800781 L 0 19 C 0 19.679688 0.519531 20.199219 1.199219 20.199219 L 22.800781 20.199219 C 23.480469 20.199219 24 19.679688 24 19 L 24 17.800781 C 24 17.558594 23.839844 17.398438 23.601562 17.398438 Z M 2.398438 5 C 2.398438 4.761719 2.558594 4.601562 2.800781 4.601562 L 21.199219 4.601562 C 21.441406 4.601562 21.601562 4.761719 21.601562 5 L 21.601562 17.398438 L 15.199219 17.398438 C 14.960938 17.398438 14.800781 17.558594 14.800781 17.800781 L 14.800781 18.199219 L 9.199219 18.199219 L 9.199219 17.800781 C 9.199219 17.558594 9.039062 17.398438 8.800781 17.398438 L 2.398438 17.398438 Z M 23.199219 19 C 23.199219 19.238281 23.039062 19.398438 22.800781 19.398438 L 1.199219 19.398438 C 0.960938 19.398438 0.800781 19.238281 0.800781 19 L 0.800781 18.199219 L 8.398438 18.199219 L 8.398438 18.601562 C 8.398438 18.839844 8.558594 19 8.800781 19 L 15.199219 19 C 15.441406 19 15.601562 18.839844 15.601562 18.601562 L 15.601562 18.199219 L 23.199219 18.199219 Z M 23.199219 19"/>
    <path d="M 10.398438 13.800781 C 10.519531 13.800781 10.601562 13.761719 10.679688 13.679688 L 13.601562 10.761719 L 15.320312 12.480469 C 15.398438 12.558594 15.480469 12.601562 15.601562 12.601562 C 15.71875 12.601562 15.800781 12.558594 15.878906 12.480469 L 19.199219 9.160156 L 19.199219 11 C 19.199219 11.238281 19.359375 11.398438 19.601562 11.398438 C 19.839844 11.398438 20 11.238281 20 11 L 20 8.199219 C 20 7.960938 19.839844 7.800781 19.601562 7.800781 L 16.800781 7.800781 C 16.558594 7.800781 16.398438 7.960938 16.398438 8.199219 C 16.398438 8.441406 16.558594 8.601562 16.800781 8.601562 L 18.640625 8.601562 L 15.601562 11.640625 L 13.878906 9.921875 C 13.820312 9.859375 13.75 9.824219 13.675781 9.808594 C 13.648438 9.800781 13.625 9.800781 13.601562 9.800781 C 13.585938 9.800781 13.574219 9.800781 13.5625 9.800781 C 13.539062 9.804688 13.511719 9.808594 13.488281 9.816406 C 13.476562 9.820312 13.464844 9.824219 13.453125 9.828125 C 13.429688 9.839844 13.40625 9.851562 13.382812 9.867188 C 13.363281 9.882812 13.339844 9.898438 13.320312 9.921875 L 10.121094 13.121094 C 9.960938 13.28125 9.960938 13.519531 10.121094 13.679688 C 10.199219 13.761719 10.28125 13.800781 10.398438 13.800781 Z M 10.398438 13.800781"/>
</svg>

<svg xmlns="http://www.w3.org/2000/svg" width="32" height="32" viewBox="0 0 24 24">
    <path d="M4 7.398c-.238 0-.398.16-.398.403v6.398c0 .242.16.403.398.403.238 0 .398-.16.398-.403V7.801c0-.242-.16-.403-.398-.403zm0 0M7.2 8.2H5.601c-.243 0-.403.16-.403.402 0 .238.16.398.403.398h1.597c.242 0 .403-.16.403-.398 0-.243-.16-.403-.403-.403zm0 0M5.602 10.602h.796c.243 0 .403-.16.403-.403 0-.238-.16-.398-.403-.398h-.796c-.243 0-.403.16-.403.398 0 .242.16.403.403.403zm0 0M7.2 11.398H5.601c-.243 0-.403.16-.403.403 0 .238.16.398.403.398h1.597c.242 0 .403-.16.403-.398 0-.242-.16-.403-.403-.403zm0 0M6.398 13h-.796c-.243 0-.403.16-.403.398 0 .243.16.403.403.403h.796c.243 0 .403-.16.403-.403 0-.238-.16-.398-.403-.398zm0 0"/>
    <path d="M23.602 17.398h-1.204V5c0-.68-.52-1.2-1.199-1.2H2.801c-.68 0-1.2.52-1.2 1.2v12.398H.399c-.238 0-.398.16-.398.403V19c0 .68.52 1.2 1.2 1.2h21.6c.68 0 1.2-.52 1.2-1.2v-1.2c0-.241-.16-.402-.398-.402zM2.398 5c0-.238.16-.398.403-.398h18.398c.242 0 .403.16.403.398v12.398h-6.403c-.238 0-.398.16-.398.403v.398H9.199v-.398c0-.242-.16-.403-.398-.403H2.398zM23.2 19c0 .238-.16.398-.398.398H1.199c-.238 0-.398-.16-.398-.398v-.8h7.597v.402c0 .238.16.398.403.398h6.398c.242 0 .403-.16.403-.398v-.403h7.597zm0 0"/>
    <path d="M10.398 13.8c.122 0 .204-.038.282-.12l2.922-2.918 1.718 1.718c.078.079.16.122.282.122.117 0 .199-.043.277-.122l3.32-3.32V11c0 .238.16.398.403.398.238 0 .398-.16.398-.398V8.2c0-.24-.16-.4-.398-.4H16.8c-.242 0-.403.16-.403.4 0 .241.16.402.403.402h1.84L15.6 11.64 13.88 9.92a.38.38 0 0 0-.203-.112c-.028-.008-.051-.008-.074-.008h-.04c-.023.004-.05.008-.074.015l-.035.012c-.023.012-.047.024-.07.04-.02.015-.043.03-.063.054l-3.199 3.2a.385.385 0 0 0 0 .558c.078.082.16.12.277.12zm0 0"/>
</svg>
